X: 3
T: The Golden Eagle
R: hornpipe
M: 4/4
L: 1/8
K: Gmaj
GBDG [B,B]DGB | dGBd gbag | fAed cFBA | GDAG FDcA |GBDG [B,B]DGB | dGBd gbag | fed^c =cFBA | G2 FA G2 :|bB^df bagf | e^def gfg^g | aA^ce agfe | dA^ce d2 ab |c'afd ^cdef | gfga b2 ag | fed^c =cFBA | G2 F2 G2 :|


Tune 974	Setting 974

